X:1
T: Miss Robertson's Fancy
C:
R:Strathspey
Q: 128
K:A
M:4/4
L:1/16
|:E2|AA3 A3A FB3 B3A|GE3 F3G A3B AE3|EA3 AA3 FB3 B3A|GE3 F3G A4 A2E2|
AA3 A3A FB3 B3A|GE3 F3G A3B AE3|EA3 AA3 FB3 B3A|GE3 F3G A4 A2cd|
ec3 ec3 f2f2 f2ef|g3f ge3 aa3 af3|ee3 e2c2 f3g a2f2|ed3 c3B c2A2 A2cd|
ec3 ec3 f2f2 f2ef|g3f ge3 aa3 af3|ee3 e2c2 f3g a2f2|ed3 c3B c2A2 A2:|
